X: 42379
T: Well-Bred Foal, The
R: reel
M: 4/4
K: Bdorian
f2 ef dBBA|Bcde f2 fa|edcB ABcd|edcB ABcd|
e2 ae cA A/A/A|Bcde fefg|aA A/A/A ABce|(3faf ef dBB2:|
bafe defg|afbf a2 f/g/a|bafe defg|afea fB B2|
bafe ^defg|afbf a3 f|e2 f/g/a bafb|afea fBB2:|

